X: 10912
T: The FAIRY DANCE
%R: reel
N: This is version 2, for ABC software that understands trailing grace notes.
B: W. Hamilton "Universal Tune-Book" Vol. 1 Glasgow 1844 p.91 #2
S: http://imslp.org/wiki/Hamilton's_Universal_Tune-Book_(Various)
Z: 2016 John Chambers <jc:trillian.mit.edu>
M: C
L: 1/8
K: D
% - - - - - - - - - - - - - - - - - - - - - - - - -
{de}|\
f2fd f2fd | f2fd cAec |\
f2fd gfed |[1 cABc defg :|[2 cABc d2d2 |]\
a2af b2ba |
gfge a2ag |\
f2fd B2ge | cABc defg |\
agfe ^dfba | gfed ceag |\
fedc B2ge | cABc d2d2 |]
% - - - - - - - - - - - - - - - - - - - - - - - - -

%%sep 1 1 500
%%sep 1 1 500

